build/category/GovernmentOutline.svg

<svg xmlns="http://www.w3.org/2000/svg" fill="none" viewBox="0 0 24 24" focusable="false"><path d="M0 0H24V24H0z"/><path fill="#74767B" fill-rule="evenodd" d="M12.4743 1.80996L12.2684 2.22195C12.1578 2.44306 11.8423 2.44306 11.7317 2.22195L11.5257 1.80996C11.426 1.61049 11.571 1.37579 11.794 1.37579L12.206 1.37579C12.429 1.37579 12.5741 1.61049 12.4743 1.80996ZM11.1945 2.48801C11.3205 2.46493 11.4445 2.53164 11.5018 2.64623L11.7317 3.10595C11.8422 3.32706 12.1578 3.32706 12.2683 3.10595L12.4986 2.64546C12.5558 2.53095 12.6797 2.46423 12.8056 2.48724C13.1417 2.54865 13.4717 2.65353 13.6404 2.82229C14.0231 3.20494 13.6917 4.30162 13.3125 4.7799C13.263 4.84224 13.1856 4.87282 13.1061 4.87282L10.8939 4.87282C10.8144 4.87282 10.737 4.84224 10.6875 4.7799C10.3083 4.30162 9.97692 3.20494 10.3596 2.82229C10.5276 2.65422 10.8586 2.54952 11.1945 2.48801ZM8.51616 5.92741C8.53771 5.92518 8.56009 5.92404 8.58332 5.92404L11.0864 5.92401C11.2906 5.924 11.4277 6.12128 11.3315 6.30142C11.2689 6.4189 11.1877 6.55282 11.0864 6.68648C11.0351 6.75428 10.9785 6.82201 10.9166 6.88749C11.213 7.19791 11.6425 7.72836 12.0134 8.44196C12.383 7.73092 12.8108 7.20172 13.1071 6.89084C13.0439 6.82432 12.9863 6.75544 12.9341 6.68648C12.8328 6.55282 12.7517 6.4189 12.689 6.30142C12.5929 6.12128 12.7299 5.924 12.9341 5.92401L15.4372 5.92404C15.4611 5.92404 15.4841 5.92525 15.5062 5.92761C15.5538 5.92519 15.6018 5.92395 15.65 5.92395C16.6386 5.92395 17.3586 6.39498 17.0995 7.27709C17.0875 7.31809 17.0491 7.34548 17.0064 7.34548L16.1645 7.34548C15.5477 7.34548 14.9338 8.27767 14.8719 9.79385C14.8659 10.0732 14.8704 10.3822 14.8781 10.7288C14.8837 10.9816 15.0911 11.1806 15.3325 11.1806C15.574 11.1806 15.7698 10.9848 15.7698 10.7433L15.7698 10.5682C15.7698 10.0921 15.9474 9.63313 16.2679 9.28102L19.2465 6.00811C19.6113 5.60728 20.3081 5.56272 20.6829 6.07254C21.8036 7.59683 22.1715 10.2063 21.5953 12.4137C21.3026 13.5349 20.754 14.6057 19.8804 15.401C18.9964 16.2057 17.8167 16.6935 16.3418 16.6935L16.0748 16.6935C15.6564 16.6935 15.3172 16.3544 15.3172 15.936C15.3172 15.7038 15.1257 15.5101 14.8875 15.5101C14.645 15.5101 14.4501 15.7072 14.4501 15.9437L14.4501 16.2006C14.4501 16.3765 14.509 16.5926 14.6381 16.8516C14.766 17.1082 14.9438 17.3701 15.1401 17.6317C15.2374 17.7615 15.3355 17.8862 15.4321 18.0091L15.4367 18.0149C15.5296 18.1331 15.6241 18.2532 15.7065 18.3647C15.7887 18.4759 15.8737 18.5979 15.94 18.7192C15.9962 18.8221 16.0901 19.0126 16.0901 19.2394C16.0901 19.7868 15.7685 20.2111 15.4497 20.4998C15.121 20.7976 14.6998 21.0404 14.2886 21.23C13.8718 21.4221 13.4327 21.5742 13.0441 21.679C12.6688 21.7802 12.2926 21.8504 12.0134 21.8504C11.7343 21.8504 11.3581 21.7802 10.9828 21.679C10.5941 21.5742 10.1551 21.4221 9.73826 21.23C9.32703 21.0404 8.90592 20.7976 8.57715 20.4998C8.25838 20.2111 7.93674 19.7868 7.93674 19.2394C7.93674 19.0126 8.03064 18.8221 8.08692 18.7192C8.15322 18.5979 8.23817 18.4759 8.32035 18.3647C8.40277 18.2532 8.49716 18.1332 8.59013 18.015C8.69 17.888 8.78986 17.761 8.88682 17.6317C9.08308 17.3701 9.26093 17.1082 9.38879 16.8516C9.51787 16.5926 9.57681 16.3765 9.57681 16.2006L9.57681 15.9437C9.57681 15.7072 9.38186 15.5101 9.13939 15.5101C8.90119 15.5101 8.70971 15.7038 8.70971 15.936C8.70971 16.3544 8.37052 16.6935 7.95211 16.6935L7.68508 16.6935C6.21013 16.6935 5.03044 16.2057 4.14649 15.401C3.27286 14.6057 2.72426 13.5349 2.43157 12.4137C1.85534 10.2063 2.22331 7.59683 3.34395 6.07254C3.71876 5.56272 4.41555 5.60728 4.78035 6.00811L7.75901 9.28102C8.07946 9.63313 8.25705 10.0921 8.25705 10.5682L8.25705 10.7433C8.25705 10.9848 8.45283 11.1806 8.69434 11.1806C8.9358 11.1806 9.14317 10.9816 9.14879 10.7288C9.15625 10.3938 9.16072 10.0939 9.15556 9.82191C9.10014 8.28918 8.48247 7.34548 7.86183 7.34548L7.01998 7.34548C6.97725 7.34548 6.9389 7.31809 6.92686 7.27709C6.66777 6.39498 7.38774 5.92395 8.37633 5.92395C8.42326 5.92395 8.46988 5.92512 8.51616 5.92741ZM10.4346 9.31378C10.4696 9.78685 10.4593 10.2729 10.4485 10.7577C10.4274 11.7056 9.65386 12.4806 8.69434 12.4806C7.73486 12.4806 6.95705 11.7028 6.95705 10.7433L6.95705 10.5682C6.95705 10.4158 6.90018 10.2688 6.79757 10.156L4.14174 7.23784C3.48594 8.44129 3.24131 10.3688 3.68941 12.0853C3.9354 13.0276 4.37812 13.8539 5.02163 14.4397C5.62051 14.9849 6.42522 15.3521 7.49807 15.3902C7.72775 14.7032 8.37893 14.2101 9.13939 14.2101C10.0938 14.2101 10.8768 14.9832 10.8768 15.9437L10.8768 16.2006C10.8768 16.6521 10.7308 17.0734 10.5523 17.4314C10.3727 17.7919 10.1405 18.1269 9.92674 18.4118C9.81947 18.5548 9.71284 18.6904 9.61754 18.8116L9.6166 18.8128C9.51885 18.9371 9.43564 19.0429 9.36566 19.1376C9.31555 19.2054 9.27935 19.2579 9.25412 19.298C9.27698 19.3475 9.32954 19.4273 9.44987 19.5363C9.64288 19.7111 9.93357 19.8885 10.2824 20.0493C10.6257 20.2075 10.995 20.3358 11.3213 20.4238C11.6609 20.5154 11.9063 20.5504 12.0134 20.5504C12.1206 20.5504 12.3659 20.5154 12.7056 20.4238C13.0319 20.3358 13.4012 20.2075 13.7444 20.0493C14.0933 19.8885 14.384 19.7111 14.577 19.5363C14.6973 19.4273 14.7499 19.3475 14.7728 19.298C14.7475 19.2579 14.7113 19.2054 14.6612 19.1376C14.5912 19.0429 14.508 18.9371 14.4103 18.8128L14.4094 18.8116C14.3141 18.6904 14.2074 18.5548 14.1001 18.4118C13.8864 18.1269 13.6542 17.7919 13.4746 17.4314C13.2961 17.0733 13.1501 16.6521 13.1501 16.2006L13.1501 15.9437C13.1501 14.9832 13.9331 14.2101 14.8875 14.2101C15.6479 14.2101 16.2991 14.7032 16.5288 15.3902C17.6017 15.3521 18.4064 14.9849 19.0052 14.4397C19.6488 13.8538 20.0915 13.0276 20.3375 12.0853C20.7856 10.3688 20.5409 8.44129 19.8851 7.23784L17.2293 10.156C17.1267 10.2688 17.0698 10.4158 17.0698 10.5682L17.0698 10.7433C17.0698 11.7028 16.292 12.4806 15.3325 12.4806C14.373 12.4806 13.5995 11.7056 13.5784 10.7577C13.5676 10.2733 13.5573 9.78772 13.5921 9.31506C13.5921 9.04891 13.2751 8.91657 13.1379 9.14462C13.0475 9.29489 12.9757 9.46166 12.8774 9.69605C12.8646 9.73086 12.8521 9.76603 12.8398 9.80156C12.7217 10.1445 12.3974 10.3932 12.0134 10.3932C11.6295 10.3932 11.3052 10.1445 11.1871 9.80156C11.176 9.76932 11.1646 9.73736 11.153 9.70571C11.0526 9.46622 10.9801 9.29694 10.8884 9.14462C10.7514 8.91686 10.4355 9.04833 10.4346 9.31378Z"/></svg>

<svg xmlns="http://www.w3.org/2000/svg" fill="none" viewBox="0 0 24 24" focusable="false"><path fill="#74767B" fill-rule="evenodd" d="m12.47 1.8-.21.42c-.11.22-.42.22-.53 0l-.21-.42c-.1-.19.05-.43.27-.43h.41c.22 0 .37.24.27.43m-1.28.68c.13-.02.25.05.31.16l.23.46c.11.22.42.22.53 0l.23-.46c.06-.11.18-.18.31-.16.34.06.67.17.84.34.38.38.05 1.48-.33 1.95-.05.07-.13.1-.21.1h-2.21c-.08 0-.16-.03-.21-.1-.38-.47-.71-1.57-.33-1.95.17-.17.5-.28.84-.34M8.51 5.92h2.57c.21 0 .34.2.25.38-.07.11-.15.25-.25.38-.05.07-.11.14-.17.2.3.31.73.84 1.1 1.56.37-.71.8-1.24 1.09-1.55-.06-.07-.12-.14-.17-.21-.1-.13-.18-.27-.25-.38-.09-.18.05-.38.25-.38h2.71c.99 0 1.71.47 1.45 1.35-.01.04-.05.07-.09.07h-.84c-.62 0-1.23.93-1.29 2.45-.01.28 0 .59 0 .93.01.26.22.46.46.46s.44-.2.44-.44v-.18c0-.47.17-.93.49-1.28L19.24 6c.37-.4 1.06-.44 1.44.07 1.12 1.52 1.49 4.13.91 6.34-.29 1.12-.84 2.19-1.71 2.99-.89.8-2.07 1.29-3.54 1.29h-.27a.76.76 0 0 1-.76-.76c0-.23-.19-.42-.43-.42s-.43.19-.43.43v.26c0 .17.05.39.18.65.13.25.31.52.51.78.09.13.19.25.29.37v.01c.09.12.19.24.27.35s.17.23.23.35c.06.11.16.3.16.52 0 .55-.33.98-.65 1.26-.32.3-.75.55-1.16.74s-.85.34-1.24.44c-.38.11-.75.18-1.03.18s-.66-.07-1.03-.18c-.39-.1-.83-.25-1.25-.44-.41-.19-.83-.44-1.16-.74-.32-.28-.64-.71-.64-1.26 0-.22.1-.41.15-.52.07-.12.15-.24.24-.35.08-.11.17-.23.27-.35.09-.13.2-.25.29-.38.2-.26.38-.53.5-.78.13-.26.19-.48.19-.65v-.26a.43.43 0 0 0-.44-.43c-.23 0-.43.19-.43.42 0 .42-.33.76-.75.76h-.27c-1.48 0-2.65-.49-3.54-1.29-.87-.8-1.42-1.87-1.71-2.99-.58-2.21-.21-4.82.91-6.34.37-.51 1.07-.47 1.44-.07l2.97 3.28c.32.35.5.81.5 1.28v.18c0 .24.2.44.44.44s.45-.2.45-.46c.01-.33.02-.63.01-.9-.05-1.54-.67-2.48-1.29-2.48h-.84c-.05 0-.09-.03-.1-.07-.26-.88.46-1.35 1.45-1.35zm1.92 3.39c.03.47.02.96.01 1.44a1.76 1.76 0 0 1-1.75 1.73c-.96 0-1.74-.78-1.74-1.74v-.18c0-.15-.05-.3-.16-.41L4.14 7.23c-.66 1.21-.9 3.13-.46 4.85.25.94.69 1.77 1.34 2.35.6.55 1.4.92 2.47.96.23-.69.88-1.18 1.64-1.18.96 0 1.74.77 1.74 1.73v.26c0 .45-.14.87-.32 1.23s-.41.69-.63.98c-.11.14-.21.28-.31.4s-.18.23-.25.32c-.05.07-.09.12-.11.16.02.05.07.13.19.24.2.18.49.35.84.51.34.16.71.29 1.04.38.34.09.58.13.69.13s.35-.04.69-.13c.33-.09.7-.22 1.04-.38.35-.16.64-.33.83-.51.12-.11.18-.19.2-.24-.03-.04-.06-.09-.11-.16-.07-.09-.16-.2-.25-.32h-.01c-.09-.12-.2-.26-.3-.4-.22-.29-.45-.62-.63-.98s-.33-.78-.33-1.23v-.26c0-.96.79-1.73 1.74-1.73.76 0 1.41.49 1.64 1.18 1.08-.04 1.88-.41 2.48-.96.64-.58 1.09-1.41 1.33-2.35.45-1.72.21-3.64-.45-4.85l-2.66 2.92a.62.62 0 0 0-.16.41v.18c0 .96-.77 1.74-1.73 1.74s-1.74-.78-1.76-1.73c-.01-.48-.02-.97.02-1.44 0-.27-.32-.4-.46-.17-.09.15-.16.32-.26.55-.01.04-.02.07-.04.11-.11.34-.44.59-.82.59-.39 0-.71-.25-.83-.59-.01-.04-.02-.07-.03-.1-.1-.24-.17-.41-.27-.56-.13-.23-.45-.1-.45.17"/></svg>
